exported-svg/arrow-up-right.svg

<svg height="24" viewBox="0 0 24 24" width="24" xmlns="http://www.w3.org/2000/svg"><path d="m17.2928932 7h-7.7928932c-.27614237 0-.5-.22385763-.5-.5s.22385763-.5.5-.5h9c.2761424 0 .5.22385763.5.5v9c0 .2761424-.2238576.5-.5.5s-.5-.2238576-.5-.5v-7.79289322l-11.14644661 11.14644662c-.19526215.1952621-.51184463.1952621-.70710678 0-.19526215-.1952622-.19526215-.5118446 0-.7071068z"/></svg>

<?xml version="1.0" encoding="UTF-8"?>
<svg width="24px" height="24px" viewBox="0 0 24 24" version="1.1" xmlns="http://www.w3.org/2000/svg" xmlns:xlink="http://www.w3.org/1999/xlink">
    <!-- Generator: Sketch 55.2 (78181) - https://sketchapp.com -->
    <title>arrow-up-right</title>
    <desc>Created with Sketch.</desc>
    <g id="arrow-up-right" stroke="none" stroke-width="1" fill="none" fill-rule="evenodd">
        <path d="M17.2928932,7 L9.5,7 C9.22385763,7 9,6.77614237 9,6.5 C9,6.22385763 9.22385763,6 9.5,6 L18.5,6 C18.7761424,6 19,6.22385763 19,6.5 L19,15.5 C19,15.7761424 18.7761424,16 18.5,16 C18.2238576,16 18,15.7761424 18,15.5 L18,7.70710678 L6.85355339,18.8535534 C6.65829124,19.0488155 6.34170876,19.0488155 6.14644661,18.8535534 C5.95118446,18.6582912 5.95118446,18.3417088 6.14644661,18.1464466 L17.2928932,7 Z" id="Combined-Shape" fill="#000000" fill-rule="nonzero"></path>
    </g>
</svg>
